assets/imgs/educacao.svg

<svg width="18" height="24" viewBox="0 0 18 24" fill="none" xmlns="http://www.w3.org/2000/svg">
<path d="M16.4052 0H1.59479C1.20648 0 0.891663 0.314812 0.891663 0.703125V20.4503C0.891663 20.8386 1.20648 21.1534 1.59479 21.1534H6.88477V23.2969C6.88477 23.5152 6.98616 23.7211 7.15922 23.8542C7.33224 23.9873 7.55729 24.0325 7.76832 23.9764L9.00001 23.6494L10.2316 23.9765C10.2912 23.9923 10.3517 24 10.4121 24C10.5654 24 10.7165 23.9498 10.8408 23.8542C11.0138 23.7211 11.1152 23.5152 11.1152 23.2969V21.1534H16.4052C16.7935 21.1534 17.1083 20.8386 17.1083 20.4503V0.703125C17.1083 0.314812 16.7935 0 16.4052 0ZM9.18047 22.2423C9.12137 22.2266 9.06066 22.2188 9.00001 22.2188C8.93935 22.2188 8.87865 22.2266 8.81954 22.2423L8.29102 22.3826V21.0817C8.51724 21.1427 8.75476 21.1758 9.00001 21.1758C9.24526 21.1758 9.48277 21.1427 9.70899 21.0817V22.3826L9.18047 22.2423ZM10.319 18.4506C10.319 19.1779 9.72732 19.7695 9.00001 19.7695C8.27269 19.7695 7.68099 19.1778 7.68099 18.4506C7.68099 17.7233 8.27269 17.1316 9.00001 17.1316C9.72732 17.1316 10.319 17.7232 10.319 18.4506ZM15.7021 19.7472H11.3965C11.6061 19.3613 11.7253 18.9196 11.7253 18.4506C11.7253 16.9478 10.5027 15.7253 9.00001 15.7253C7.49729 15.7253 6.27474 16.9479 6.27474 18.4506C6.27474 18.9196 6.3939 19.3614 6.60347 19.7472H2.29791V1.40625H15.7021V19.7472H15.7021Z" fill="#5f712d"/>
<path d="M4.76367 14.1152H13.2363C13.6246 14.1152 13.9395 13.8004 13.9395 13.4121C13.9395 13.0238 13.6246 12.709 13.2363 12.709H4.76367C4.37536 12.709 4.06055 13.0238 4.06055 13.4121C4.06055 13.8004 4.37536 14.1152 4.76367 14.1152Z" fill="#BD5319"/>
<path d="M4.76367 11.291H13.2363C13.6246 11.291 13.9395 10.9762 13.9395 10.5879C13.9395 10.1996 13.6246 9.88477 13.2363 9.88477H4.76367C4.37536 9.88477 4.06055 10.1996 4.06055 10.5879C4.06055 10.9762 4.37536 11.291 4.76367 11.291Z" fill="#BD5319"/>
<path d="M4.76367 8.4668H13.2363C13.6246 8.4668 13.9395 8.15198 13.9395 7.76367C13.9395 7.37536 13.6246 7.06055 13.2363 7.06055H4.76367C4.37536 7.06055 4.06055 7.37536 4.06055 7.76367C4.06055 8.15198 4.37536 8.4668 4.76367 8.4668Z" fill="#BD5319"/>
<path d="M4.76367 5.64258H10.4121C10.8004 5.64258 11.1152 5.32777 11.1152 4.93945C11.1152 4.55114 10.8004 4.23633 10.4121 4.23633H4.76367C4.37536 4.23633 4.06055 4.55114 4.06055 4.93945C4.06055 5.32777 4.37536 5.64258 4.76367 5.64258Z" fill="#BD5319"/>
</svg>

<svg width="18" height="24" fill="none" xmlns="http://www.w3.org/2000/svg"><path d="M16.405 0H1.595a.703.703 0 00-.703.703V20.45c0 .389.314.703.703.703h5.29v2.144a.703.703 0 00.883.68L9 23.648l1.232.328a.703.703 0 00.883-.68v-2.144h5.29a.703.703 0 00.703-.703V.703A.703.703 0 0016.405 0zM9.18 22.242a.703.703 0 00-.36 0l-.529.14v-1.3a2.72 2.72 0 001.418 0v1.3l-.529-.14zm1.139-3.791A1.32 1.32 0 019 19.77a1.32 1.32 0 01-1.319-1.32A1.32 1.32 0 019 17.133a1.32 1.32 0 011.319 1.319zm5.383 1.296h-4.306c.21-.386.33-.827.33-1.296A2.728 2.728 0 009 15.725a2.728 2.728 0 00-2.397 4.022H2.298V1.407h13.404v18.34z" fill="#5f712d"/><path d="M4.764 14.115h8.472a.703.703 0 100-1.406H4.764a.703.703 0 000 1.406zM4.764 11.291h8.472a.703.703 0 100-1.406H4.764a.703.703 0 000 1.406zM4.764 8.467h8.472a.703.703 0 000-1.406H4.764a.703.703 0 000 1.406zM4.764 5.643h5.648a.703.703 0 000-1.407H4.764a.703.703 0 000 1.407z" fill="#BD5319"/></svg>
